X: 305714
M: 2/4
L: 1/16
K: C
cccc e2e2 | g2(ag) e2e2 | g2g2 d2d2 | e2(g2 c'2)GG |\
c2cd (ed)ef | g2(ag) e2e2 | g2gf d2gf | c4 z2 H|]
c2 |\
d2d2 cBAG | d2d2 cBAG | d2gB (dc).A.B | A2GG G3G |\
c2(cd) (ed)ef | ggag e2ee | g2ff d2g2 | c6 "^D.C."y :|


